X: 3052
T: Beach House
R: jig
M: 6/8
K: Amajor
|c3|:"A" ABc fec|egA cBA|Ace fae|fac "E" B2 c|
"A" ABc fec|"E" ece ecA|"D" Ace a2 b|"A" aec A2 c:|
|:"D" aff aff|"A" aba ecA|"D"aff aff|"A" abf "E" e2 e|
"D" aff aff|"E" ece ecA|"D" GFE FAc|"E7" ecG "A" A3:|

